X:8620
T:King Shall Enjoy His Own Again,The. HA18
M:4/4
L:1/4
Q:100
S:Henry Atkinson MS,Hartburn,Northumberland,1694/5 transcribed John Stokoe 1883
N:No key signature given but c/f other versions should be D major.  There
N:is a dal segno sign over the begining of bar 9 here replaced by repeat
N:marks between bars 8 and 9
Z:vmp.Cherri Graebe
K:D Major
AAdd|e/f/g/a/fe/f/|gBcd/e/|e2d2||ec/d/ef|e/d/c/d/ef|!
gBc/d/e/c/|B2A2|a/b/a/g/fe/d/|e/f/g/a/fe/f/|gBcd/e/|e2d2||
